cursors/src/svg/dnd-move.svg

<?xml version="1.0" encoding="UTF-8" standalone="no"?>
<svg
   xmlns:dc="http://purl.org/dc/elements/1.1/"
   xmlns:cc="http://creativecommons.org/ns#"
   xmlns:rdf="http://www.w3.org/1999/02/22-rdf-syntax-ns#"
   xmlns:svg="http://www.w3.org/2000/svg"
   xmlns="http://www.w3.org/2000/svg"
   xmlns:sodipodi="http://sodipodi.sourceforge.net/DTD/sodipodi-0.dtd"
   xmlns:inkscape="http://www.inkscape.org/namespaces/inkscape"
   width="32"
   height="32"
   version="1.1"
   viewBox="0 0 32 32"
   id="svg21"
   sodipodi:docname="dnd-move.svg"
   inkscape:version="0.92.4 5da689c313, 2019-01-14">
  <metadata
     id="metadata25">
    <rdf:RDF>
      <cc:Work
         rdf:about="">
        <dc:format>image/svg+xml</dc:format>
        <dc:type
           rdf:resource="http://purl.org/dc/dcmitype/StillImage" />
      </cc:Work>
    </rdf:RDF>
  </metadata>
  <sodipodi:namedview
     pagecolor="#ffffff"
     bordercolor="#666666"
     borderopacity="1"
     objecttolerance="10"
     gridtolerance="10"
     guidetolerance="10"
     inkscape:pageopacity="0"
     inkscape:pageshadow="2"
     inkscape:window-width="1366"
     inkscape:window-height="705"
     id="namedview23"
     showgrid="false"
     inkscape:zoom="10.490937"
     inkscape:cx="3.3061011"
     inkscape:cy="7.8250685"
     inkscape:window-x="0"
     inkscape:window-y="34"
     inkscape:window-maximized="1"
     inkscape:current-layer="svg21" />
  <defs
     id="defs5">
    <filter
       id="a"
       x="-.24009"
       y="-.23991"
       width="1.4802"
       height="1.4798"
       color-interpolation-filters="sRGB">
      <feGaussianBlur
         stdDeviation="1.6005988"
         id="feGaussianBlur2" />
    </filter>
  </defs>
  <path
     d="M 17,8 C 16.09993,8 15.451,8.6784 15.207,9.5078 14.86347,9.231 14.46749,9 14,9 12.9093,9 12,9.9093 12,11 v 4.4199 C 11.69108,15.2233 11.38722,15 11,15 9.9093,15 9,15.9093 9,17 v 5 c 0,0.2716 0.054057,0.5369 0.15625,0.7793 0.10327,0.245 0.25593,0.4616 0.43164,0.6367 0.35929,0.3582 0.86342,0.584 1.4121,0.584 h 2.8789 l -0.14062,-0.01 c 0.17273,0.024 0.37991,0.034 0.60742,0 l -0.16602,0.014 h 7.8203 c 1.3333,0 2.2753,-0.8142 2.6445,-1.5527 C 25.01373,21.7088 24.99994,21 24.99994,21 v -8 c 0,-1.0907 -0.9093,-2 -2,-2 -0.38722,0 -0.69108,0.2233 -1,0.4199 V 11 c 0,-1.0907 -0.9093,-2 -2,-2 -0.46752,0 -0.8635,0.231 -1.207,0.5078 C 18.54899,8.6784 17.90004,8 16.99994,8 Z"
     dominant-baseline="auto"
     style="color:#000000;font-variant-ligatures:normal;font-variant-position:normal;font-variant-caps:normal;font-variant-numeric:normal;font-variant-alternates:normal;font-feature-settings:normal;text-indent:0;text-decoration:none;text-decoration-line:none;text-decoration-style:solid;text-decoration-color:#000000;text-transform:none;text-orientation:mixed;dominant-baseline:auto;white-space:normal;shape-padding:0;opacity:0.35;isolation:auto;mix-blend-mode:normal;solid-color:#000000;filter:url(#a);color-rendering:auto;image-rendering:auto;shape-rendering:auto;enable-background:new"
     id="path7"
     inkscape:connector-curvature="0" />
  <path
     d="M 16,7 C 15.09993,7 14.451,7.6784 14.207,8.5078 13.86347,8.231 13.46749,8 13,8 11.9093,8 11,8.9093 11,10 v 4.4199 C 10.69108,14.2233 10.38722,14 10,14 8.9093,14 8,14.9093 8,16 v 5 c 0,0.2716 0.054057,0.5369 0.15625,0.7793 0.10327,0.245 0.25593,0.4616 0.43164,0.6367 C 8.94718,22.7742 9.45131,23 9.99999,23 h 2.8789 l -0.14062,-0.01 c 0.17273,0.024 0.37991,0.034 0.60742,0 l -0.16602,0.014 h 7.8203 c 1.3333,0 2.2753,-0.8142 2.6445,-1.5527 C 24.01373,20.7088 23.99994,20 23.99994,20 v -8 c 0,-1.0907 -0.9093,-2 -2,-2 -0.38722,0 -0.69108,0.2233 -1,0.4199 V 10 c 0,-1.0907 -0.9093,-2 -2,-2 -0.46752,0 -0.8635,0.231 -1.207,0.5078 C 17.54899,7.6784 16.90004,7 15.99994,7 Z m -3,5 a 1.0001,1.0001 0 0 0 0.88867,0.9941 l 1,0.1114 a 1.0001,1.0001 0 0 0 1.1113,-0.9942 v 0.2207 a 1.0001,1.0001 0 0 0 0.88867,0.9942 l 1,0.1113 a 1.0001,1.0001 0 0 0 1.1113,-0.9941 v 0.2226 a 1.0001,1.0001 0 0 0 0.88867,0.9942 l 1,0.1113 a 1.0001,1.0001 0 0 0 1.1113,-0.9942 V 20 c 0,0 -0.01379,0.2912 -0.14453,0.5527 C 21.72464,20.8142 21.66658,21 20.99991,21 h -7.8203 a 1.0001,1.0001 0 0 0 -0.16602,0.014 c 0.02554,0 0.03093,-4e-4 0.0059,0 a 1.0001,1.0001 0 0 0 -0.14062,-0.01 h -2.8789 v -5 a 1.0001,1.0001 0 0 0 1,1 h 1 a 1.0001,1.0001 0 0 0 1,-1 v -3 z"
     dominant-baseline="auto"
     style="color:#000000;font-variant-ligatures:normal;font-variant-position:normal;font-variant-caps:normal;font-variant-numeric:normal;font-variant-alternates:normal;font-feature-settings:normal;text-indent:0;text-decoration:none;text-decoration-line:none;text-decoration-style:solid;text-decoration-color:#000000;text-transform:none;text-orientation:mixed;dominant-baseline:auto;white-space:normal;shape-padding:0;isolation:auto;mix-blend-mode:normal;solid-color:#000000;fill:#ffffff;color-rendering:auto;image-rendering:auto;shape-rendering:auto;enable-background:new"
     id="path9"
     inkscape:connector-curvature="0" />
  <path
     d="m 16,8 c -0.554,0 -1,0.446 -1,1 v 3.1113 l -1,-0.11133 v -2 c 0,-0.554 -0.446,-1 -1,-1 -0.554,0 -1,0.446 -1,1 v 2 1 3 h -1 c 0,-0.554 -0.446,-1 -1,-1 -0.554,0 -1,0.446 -1,1 v 5 c 0,0.1385 0.027656,0.27091 0.078125,0.39062 0.050682,0.12022 0.12394,0.2258 0.21484,0.31641 0.18066,0.18008 0.43062,0.29297 0.70703,0.29297 h 2.8789 c 0.0989,0.014 0.1998,0.017 0.30078,0 h 7.8203 c 2,0 2,-2 2,-2 v -3 -4 -1 c 0,-0.554 -0.446,-1 -1,-1 -0.554,0 -1,0.446 -1,1 v 0.77734 l -1,-0.11133 v -2.666 c 0,-0.554 -0.446,-1 -1,-1 -0.554,0 -1,0.446 -1,1 v 2.4434 l -1,-0.11133 v -3.332 c 0,-0.554 -0.446,-1 -1,-1 z"
     id="path11"
     style="fill:#282A33;enable-background:new"
     inkscape:connector-curvature="0" />
  <path
     d="m 11,14 v 4 h 1 v -4 z"
     id="path13"
     inkscape:connector-curvature="0"
     style="fill:#ffffff;enable-background:new" />
  <rect
     style="opacity:0.2;fill:none"
     id="rect17"
     height="24"
     width="24"
     y="4.0000243"
     x="4" />
</svg>

<?xml version="1.0" encoding="UTF-8" standalone="no"?>
<!DOCTYPE svg PUBLIC "-//W3C//DTD SVG 1.1//EN" "http://www.w3.org/Graphics/SVG/1.1/DTD/svg11.dtd">
<svg width="100%" height="100%" viewBox="0 0 32 32" version="1.1" xmlns="http://www.w3.org/2000/svg" xmlns:xlink="http://www.w3.org/1999/xlink" xml:space="preserve" xmlns:serif="http://www.serif.com/" style="fill-rule:evenodd;clip-rule:evenodd;stroke-linejoin:round;stroke-miterlimit:2;">
    <use id="path7" xlink:href="#_Image1" x="4.198" y="3.198" width="26px" height="26px"/>
    <path id="path9" d="M16,7C15.1,7 14.451,7.678 14.207,8.508C13.863,8.231 13.467,8 13,8C11.909,8 11,8.909 11,10L11,14.42C10.691,14.223 10.387,14 10,14C8.909,14 8,14.909 8,16L8,21C8,21.272 8.054,21.537 8.156,21.779C8.26,22.024 8.412,22.241 8.588,22.416C8.947,22.774 9.451,23 10,23L12.879,23L12.738,22.99C12.911,23.014 13.118,23.024 13.346,22.99L13.18,23.004L21,23.004C22.333,23.004 23.275,22.19 23.644,21.451C24.014,20.709 24,20 24,20L24,12C24,10.909 23.091,10 22,10C21.613,10 21.309,10.223 21,10.42L21,10C21,8.909 20.091,8 19,8C18.532,8 18.136,8.231 17.793,8.508C17.549,7.678 16.9,7 16,7L16,7ZM13,12C13,12.507 13.385,12.938 13.889,12.994L14.889,13.105C14.926,13.11 14.963,13.112 15,13.112C15.549,13.112 16,12.66 16,12.112C16,12.112 16,12.111 16,12.111L16,12.332C16,12.839 16.385,13.27 16.889,13.326L17.889,13.438C17.926,13.442 17.963,13.444 18,13.444C18.548,13.444 19,12.992 19,12.444C19,12.444 19,12.443 19,12.443L19,12.666C19,13.173 19.385,13.604 19.889,13.66L20.889,13.772C20.926,13.776 20.963,13.778 21,13.778C21.548,13.778 22,13.326 22,12.778C22,12.778 22,12.777 22,12.777L22,20C22,20 21.986,20.291 21.855,20.553C21.725,20.814 21.667,21 21,21L13.18,21C13.124,21 13.068,21.005 13.014,21.014C13.039,21.014 13.045,21.014 13.019,21.014C12.973,21.007 12.926,21.004 12.879,21.004L10,21.004L10,16.004C10,16.553 10.451,17.004 11,17.004L12,17.004C12.549,17.004 13,16.553 13,16.004L13,13.004L13,12Z" style="fill:white;fill-rule:nonzero;"/>
    <path id="path11" d="M16,8C15.446,8 15,8.446 15,9L15,12.111L14,12L14,10C14,9.446 13.554,9 13,9C12.446,9 12,9.446 12,10L12,16L11,16C11,15.446 10.554,15 10,15C9.446,15 9,15.446 9,16L9,21C9,21.138 9.028,21.271 9.078,21.391C9.129,21.511 9.202,21.616 9.293,21.707C9.474,21.887 9.724,22 10,22L12.879,22C12.978,22.014 13.079,22.017 13.18,22L21,22C23,22 23,20 23,20L23,12C23,11.446 22.554,11 22,11C21.446,11 21,11.446 21,12L21,12.777L20,12.666L20,10C20,9.446 19.554,9 19,9C18.446,9 18,9.446 18,10L18,12.443L17,12.332L17,9C17,8.446 16.554,8 16,8L16,8Z" style="fill-rule:nonzero;"/>
    <rect id="path13" x="11" y="14" width="1" height="4" style="fill:white;fill-rule:nonzero;"/>
    <rect id="rect17" x="4" y="4" width="24" height="24" style="fill:none;"/>
    <defs>
        <image id="_Image1" width="26px" height="26px" xlink:href="data:image/png;base64,iVBORw0KGgoAAAANSUhEUgAAABoAAAAaCAYAAACpSkzOAAAACXBIWXMAAA7EAAAOxAGVKw4bAAABuklEQVRIiaWW226EMAxEh8DCbv//X1uWWx/WAxNjU6RGsogg8YntZEiD+61J3m93Jnc3nftnBkmhGUgdNwCK9PltM1ulnwIjEB0VsdasyPfVbJE+oSdYFpE6f5h1AmMkC4DZGYEVzIM0VS2AHsBg1htQQTOAt9lkz9kWsCgsS10xpwOAF4AvAE8BQaIZxYqAOQYANgVpsVtbhIJeFlXrQAOAHxvPGmqdlix1TNvDHD8F9hDQZiDWTyG6URoFRdH0OGrEvge1YgqfzIoBT6nLIFw1V85WENdMdygYkd9pTBl3G7d36yLfxFHnTM/cKXVFotEt3UcT3dMfaj92X5GmjduaxhVWE6U1F7Y3r2GqBF4RMvW+1fxm0BRkafDi+ZeFoKvfwXrx3gusV/MKpKtYUIvmhrhGdMpzQ2E9ATuc5YIH7o1P+ngwoxoxogmH3hGoKr5H5NWYArkKMKqTzhsBfAtMo6pAjOYtkBm1jmURMQsjPgLL38VejiiiEYdmjTj/WT0oSrlGtKeOaWDx2Z8CiMJ8+hZn1WbQif4iomdIxyhE+3Qc3h18OvztJxoTNXUaXk4yJ/+Rm/Bu9wsxzcvaFEsQ3AAAAABJRU5ErkJggg=="/>
    </defs>
</svg>
